X:4
T:The Big Night
M:4/4
L:1/8
R:Reel
C:Gris Sanderson
Q:400
N:This was written as a pipe reel on the occasion of somebody's 
N:birthday I believe. It is on the Spyka album played by 
N:Graham McAvoy on the highland bagpipes.
K:Bmix
f2fe fB~B2|bafb afef|gfeg fA~A2|eAaf eAce|
f2fe fB~B2|bafae2zb-|bBaB fAce|1fege fece:|2fege fecB||
|:ABcAB2Ba-|a2ab afea|fbea fbea-|ab-ba fefa|
ABcAB2za-|1abeaf2zb-|bBaB fAce|fege fecB:|
|2abeaf2zb-|bafba2eg|fege fece||
